public/avatar/shoe/17.svg

<svg xmlns:xlink="http://www.w3.org/1999/xlink" height="38.3" width="36.05" xmlns="http://www.w3.org/2000/svg"><use height="17.9" transform="translate(9.65 12)" width="22.1" xlink:href="#a"/><defs><use height="17.9" width="22.1" xlink:href="#b" id="a"/><g id="b"><path d="m-2.4-6.85 6.45-1.6 3.2.95.15.45-1.35.6-1.3.45-1.55.55-.4.25-.9-.05-.6-.2-.85-.25Q-1.7-6.25-2.4-6.85" fill="#352100" fill-rule="evenodd" transform="translate(11.05 8.95)"/><path d="M-2.4-6.85q.7.6 2.85 1.15l.85.25.6.2.9.05.4-.25L4.75-6l1.3-.45 1.35-.6 1.05 3.2-.35.1L6.45-3l-.6.3-1.15.5-.35.15L2.8-5.2 1.3-.25-.45-1.2l-.7-.3-.85-.3-1.65-.45-2.2-.5 3.45-4.1m-3.25 15.3-4.9-1.95V4.15l4.9 1.55v2.75M4.75-6l.75 2.25.35 1.05-.35-1.05L4.75-6" fill="#583101" fill-rule="evenodd" transform="translate(11.05 8.95)"/><path d="m8.45-3.85 2.1 6.35L6.3 4.3l-.85-3.15-.8-2.35-.3-.85.35-.15 1.15-.5.6-.3 1.65-.75.35-.1M6.65-.5 6.1-2.1l-.25-.6.25.6.55 1.6" fill="#9b6c02" fill-rule="evenodd" transform="translate(11.05 8.95)"/><path d="M6.3 4.3-5.65 8.45V5.7L1.3-.25 2.8-5.2l1.55 3.15.3.85.8 2.35.85 3.15M.65 3.15l4-4.35-4 4.35m1.95.75 2.85-2.75L2.6 3.9M-.7 5.15l.65-.8-.65.8" fill="#724701" fill-rule="evenodd" transform="translate(11.05 8.95)"/><path d="m-10.55 4.15 4.7-6.9 2.2.5L-2-1.8l.85.3.7.3 1.75.95-6.95 5.95-4.9-1.55m7.3-2.95 2.1-2.7-2.1 2.7" fill="#a97e01" fill-rule="evenodd" transform="translate(11.05 8.95)"/><path d="m7.4-7.05-.15-.45-3.2-.95-6.45 1.6-3.45 4.1-4.7 6.9V6.5l4.9 1.95L6.3 4.3l4.25-1.8-2.1-6.35-1.05-3.2M5.85-2.7 5.5-3.75 4.75-6" fill="none" stroke="#352100" stroke-linecap="round" stroke-linejoin="round" transform="translate(11.05 8.95)"/><path d="m5.85-2.7.25.6.55 1.6m-7.8-1-2.1 2.7" fill="none" stroke="#640" stroke-linecap="round" stroke-linejoin="round" transform="translate(11.05 8.95)"/><path d="M5.45 1.15 2.6 3.9m2.05-5.1-4 4.35m-.7 1.2-.65.8" fill="none" stroke="#422800" stroke-linecap="round" stroke-linejoin="round" transform="translate(11.05 8.95)"/></g></defs></svg>

<?xml version="1.0" encoding="UTF-8" standalone="no"?>
<svg xmlns:xlink="http://www.w3.org/1999/xlink" height="38.3px" width="36.05px" xmlns="http://www.w3.org/2000/svg">
  <g transform="matrix(1.0, 0.0, 0.0, 1.0, 23.8, 14.85)">
    <use height="17.9" transform="matrix(1.0, 0.0, 0.0, 1.0, -14.15, -2.85)" width="22.1" xlink:href="#sprite0"/>
  </g>
  <defs>
    <g id="sprite0" transform="matrix(1.0, 0.0, 0.0, 1.0, 11.05, 8.95)">
      <use height="17.9" transform="matrix(1.0, 0.0, 0.0, 1.0, -11.05, -8.95)" width="22.1" xlink:href="#shape0"/>
    </g>
    <g id="shape0" transform="matrix(1.0, 0.0, 0.0, 1.0, 11.05, 8.95)">
      <path d="M-2.4 -6.85 L4.05 -8.45 7.25 -7.5 7.4 -7.05 6.05 -6.45 4.75 -6.0 3.2 -5.45 2.8 -5.2 1.9 -5.25 1.3 -5.45 0.45 -5.7 Q-1.7 -6.25 -2.4 -6.85" fill="#352100" fill-rule="evenodd" stroke="none"/>
      <path d="M-2.4 -6.85 Q-1.7 -6.25 0.45 -5.7 L1.3 -5.45 1.9 -5.25 2.8 -5.2 3.2 -5.45 4.75 -6.0 6.05 -6.45 7.4 -7.05 8.45 -3.85 8.1 -3.75 6.45 -3.0 5.85 -2.7 4.7 -2.2 4.35 -2.05 2.8 -5.2 1.3 -0.25 -0.45 -1.2 -1.15 -1.5 -2.0 -1.8 -3.65 -2.25 -5.85 -2.75 -2.4 -6.85 M-5.65 8.45 L-10.55 6.5 -10.55 4.15 -5.65 5.7 -5.65 8.45 M4.75 -6.0 L5.5 -3.75 5.85 -2.7 5.5 -3.75 4.75 -6.0" fill="#583101" fill-rule="evenodd" stroke="none"/>
      <path d="M8.45 -3.85 L10.55 2.5 6.3 4.3 5.45 1.15 4.65 -1.2 4.35 -2.05 4.7 -2.2 5.85 -2.7 6.45 -3.0 8.1 -3.75 8.45 -3.85 M6.65 -0.5 L6.1 -2.1 5.85 -2.7 6.1 -2.1 6.65 -0.5" fill="#9b6c02" fill-rule="evenodd" stroke="none"/>
      <path d="M6.3 4.3 L-5.65 8.45 -5.65 5.7 1.3 -0.25 2.8 -5.2 4.35 -2.05 4.65 -1.2 5.45 1.15 6.3 4.3 M0.65 3.15 L4.65 -1.2 0.65 3.15 M2.6 3.9 L5.45 1.15 2.6 3.9 M-0.7 5.15 L-0.05 4.35 -0.7 5.15" fill="#724701" fill-rule="evenodd" stroke="none"/>
      <path d="M-10.55 4.15 L-5.85 -2.75 -3.65 -2.25 -2.0 -1.8 -1.15 -1.5 -0.45 -1.2 1.3 -0.25 -5.65 5.7 -10.55 4.15 M-3.25 1.2 L-1.15 -1.5 -3.25 1.2" fill="#a97e01" fill-rule="evenodd" stroke="none"/>
      <path d="M7.4 -7.05 L7.25 -7.5 4.05 -8.45 -2.4 -6.85 -5.85 -2.75 -10.55 4.15 -10.55 6.5 -5.65 8.45 6.3 4.3 10.55 2.5 8.45 -3.85 7.4 -7.05 M5.85 -2.7 L5.5 -3.75 4.75 -6.0" fill="none" stroke="#352100" stroke-linecap="round" stroke-linejoin="round" stroke-width="1.0"/>
      <path d="M5.85 -2.7 L6.1 -2.1 6.65 -0.5 M-1.15 -1.5 L-3.25 1.2" fill="none" stroke="#664400" stroke-linecap="round" stroke-linejoin="round" stroke-width="1.0"/>
      <path d="M5.45 1.15 L2.6 3.9 M4.65 -1.2 L0.65 3.15 M-0.05 4.35 L-0.7 5.15" fill="none" stroke="#422800" stroke-linecap="round" stroke-linejoin="round" stroke-width="1.0"/>
    </g>
  </defs>
</svg>
